X:104
T:Land O' Lake's Waltz
R:waltz
C:Bruce Osborne - Dec.2004
Z:abc by bosborne@kos.net
M:3/4
L:1/8
K:Fmaj
CD|F3 C FA|d2 c2 CD|F3 C FA|G4 GA|\
B3 A Bc|ed c2 GA|1 BA Bc ed|c4:|2BG EC EG|F4
|:Ac|f3 e fg|af c2 Ac|B3 c BF|D4 F2|\
E3 D EF|G3 F GA|1 BA Bc ed|c4:|2BG EC EG|F4||
